dist/svg/check-in-fill-4.svg

<svg xmlns="http://www.w3.org/2000/svg" viewBox="0 0 24 24"><path d="M5.617 2.283q-.873.101-1.552.781a2.74 2.74 0 0 0-.696 1.116l-.109.32v15l.109.32c.151.445.362.783.695 1.116s.671.544 1.116.695l.32.109h13l.32-.109a2.74 2.74 0 0 0 1.116-.695c.333-.333.544-.671.695-1.116l.109-.32v-15l-.109-.32a2.74 2.74 0 0 0-.696-1.116c-.472-.471-.961-.709-1.606-.783-.425-.049-12.293-.046-12.712.002m1.56 2.995a.739.739 0 0 1 .348 1.246.84.84 0 0 1-.306.191c-.093.026-.507.044-.999.044-.732-.001-.86-.01-1-.075-.521-.241-.625-.866-.205-1.234a.8.8 0 0 1 .256-.153c.06-.013.127-.03.149-.037.092-.031 1.613-.015 1.757.018m10.183.063a.78.78 0 0 1 .338.388c.275.658-.513 1.297-1.106.897-.545-.367-.405-1.192.228-1.35a.95.95 0 0 1 .54.065m-4.964 2.94a4.63 4.63 0 0 1 3.029 1.448c1.531 1.596 1.752 4 .541 5.871-.286.441-.925 1.08-1.366 1.366a4.73 4.73 0 0 1-5.2 0c-.441-.286-1.08-.925-1.366-1.366-1.212-1.872-.991-4.274.541-5.871.763-.795 1.678-1.264 2.785-1.43.439-.065.493-.066 1.036-.018m-.81 1.538c-.357.138-.688.491-.785.839-.07.25-.037.642.073.87.118.243.379.503.605.604.113.05.368.1.685.133.807.084 1.259.288 1.771.799.157.156.353.399.436.54.164.278.349.808.349 1 0 .165.058.117.2-.165.227-.448.298-.794.298-1.439 0-.481-.015-.633-.089-.892-.302-1.052-1.18-1.936-2.215-2.229-.39-.11-1.112-.143-1.328-.06m-2.371 1.505c-.099.122-.258.487-.344.784-.129.45-.129 1.334 0 1.784.167.582.458 1.042.941 1.492.474.44.947.686 1.533.798.7.134 1.173.045 1.506-.283.282-.278.369-.491.369-.899 0-.399-.086-.616-.345-.875-.251-.252-.463-.334-.961-.372-.787-.062-1.339-.305-1.85-.818-.425-.425-.7-.947-.775-1.466-.023-.159-.039-.189-.074-.145"/></svg>

<svg fill="none" xmlns="http://www.w3.org/2000/svg" viewBox="0 0 24 24"><path d="M5.617 2.283 C 5.034 2.351,4.519 2.610,4.065 3.064 C 3.732 3.396,3.521 3.735,3.369 4.180 L 3.260 4.500 3.260 12.000 L 3.260 19.500 3.369 19.820 C 3.520 20.265,3.731 20.603,4.064 20.936 C 4.397 21.269,4.735 21.480,5.180 21.631 L 5.500 21.740 12.000 21.740 L 18.500 21.740 18.820 21.631 C 19.265 21.480,19.603 21.269,19.936 20.936 C 20.269 20.603,20.480 20.265,20.631 19.820 L 20.740 19.500 20.740 12.000 L 20.740 4.500 20.631 4.180 C 20.479 3.735,20.268 3.396,19.935 3.064 C 19.463 2.593,18.974 2.355,18.329 2.281 C 17.904 2.232,6.036 2.235,5.617 2.283 M7.177 5.278 C 7.742 5.409,7.938 6.111,7.525 6.524 C 7.444 6.605,7.307 6.691,7.219 6.715 C 7.126 6.741,6.712 6.759,6.220 6.759 C 5.488 6.758,5.360 6.749,5.220 6.684 C 4.699 6.443,4.595 5.818,5.015 5.450 C 5.095 5.379,5.211 5.310,5.271 5.297 C 5.331 5.284,5.398 5.267,5.420 5.260 C 5.512 5.229,7.033 5.245,7.177 5.278 M17.360 5.341 C 17.501 5.414,17.626 5.557,17.698 5.729 C 17.973 6.387,17.185 7.026,16.592 6.626 C 16.047 6.259,16.187 5.434,16.820 5.276 C 16.966 5.240,17.224 5.271,17.360 5.341 M12.396 8.281 C 13.593 8.387,14.598 8.868,15.425 9.729 C 16.956 11.325,17.177 13.729,15.966 15.600 C 15.680 16.041,15.041 16.680,14.600 16.966 C 12.996 18.005,11.004 18.005,9.400 16.966 C 8.959 16.680,8.320 16.041,8.034 15.600 C 6.822 13.728,7.043 11.326,8.575 9.729 C 9.338 8.934,10.253 8.465,11.360 8.299 C 11.799 8.234,11.853 8.233,12.396 8.281 M11.586 9.819 C 11.229 9.957,10.898 10.310,10.801 10.658 C 10.731 10.908,10.764 11.300,10.874 11.528 C 10.992 11.771,11.253 12.031,11.479 12.132 C 11.592 12.182,11.847 12.232,12.164 12.265 C 12.971 12.349,13.423 12.553,13.935 13.064 C 14.092 13.220,14.288 13.463,14.371 13.604 C 14.535 13.882,14.720 14.412,14.720 14.604 C 14.720 14.769,14.778 14.721,14.920 14.439 C 15.147 13.991,15.218 13.645,15.218 13.000 C 15.218 12.519,15.203 12.367,15.129 12.108 C 14.827 11.056,13.949 10.172,12.914 9.879 C 12.524 9.769,11.802 9.736,11.586 9.819 M9.215 11.324 C 9.116 11.446,8.957 11.811,8.871 12.108 C 8.742 12.558,8.742 13.442,8.871 13.892 C 9.038 14.474,9.329 14.934,9.812 15.384 C 10.286 15.824,10.759 16.070,11.345 16.182 C 12.045 16.316,12.518 16.227,12.851 15.899 C 13.133 15.621,13.220 15.408,13.220 15.000 C 13.220 14.601,13.134 14.384,12.875 14.125 C 12.624 13.873,12.412 13.791,11.914 13.753 C 11.127 13.691,10.575 13.448,10.064 12.935 C 9.639 12.510,9.364 11.988,9.289 11.469 C 9.266 11.310,9.250 11.280,9.215 11.324 " stroke="none" fill-rule="evenodd"/></svg>
